!!!!SEGMENT: pl-wnifc--3111-n--005_sowinski-wojciech--grandes-etudes-de-concert-op-60-etude-pour-la-main-gauche-seule.krn
!!!cenid: 18xx:3855
!!!COM: Sowiński, Wojciech
!!!COM-rismID: pe30008543
!!!CDT: ~1803-1880/03/05
!!!CNT:
!!!GTL: Grandes Études de concert op. 60
!!!OTL: Étude pour la main gauche seule
!!!OMV: 005
!!!PDT: 1843
!!!AGN:
!!!SMS-siglum: PL-Wnifc
!!!SMS-shelfmark: 3111/n
!!!SMS-shelfwork: 001-005 G
!!!SMS-variant:
!!!SMS-altvar:
!!!NIFC-rismSourceID: 1001141968
!!!NIFC-rismChildID: 1001141973
!!!NIFC-islandoraID: nifc:212151
!!!URL-pdf-islandora: https://repozytorium.nifc.pl/islandora/object/nifc%3A212151/datastream/PDF/view
!!!URL-scan: https://polish.musicsources.pl/pl/lokalizacje/galeria/druki-muzyczne/16829 @EN{Scan on Polish Music Sources Website} @PL{Skany w portalu Dziedzictwo Muzyki Polskiej w otwartym dostępie}
!!!ONB-nifc:
!!!AIN: 2 piano
!!!key: F#
**kern	**fing	**dynam	**kern	**fing	**dynam
*part2	*part2	*part2	*part1	*part1	*part1
*staff2	*	*	*staff1	*	*
*I"PIANO	*	*	*I"PIANO	*	*
*I'pf	*	*	*I'pf	*	*
*ICklav	*	*	*ICklav	*	*
*Ipiano	*	*	*Ipiano	*	*
*clefF4	*	*	*clefG2	*	*
*k[f#c#g#d#a#e#b#]	*	*	*k[f#c#g#d#a#e#b#]	*	*
*F#:	*	*	*F#:	*	*
*M9/8	*	*	*M9/8	*	*
=1	=1	=1	=1	=1	=1
*	*	*	*^	*	*
*Xtuplet	*	*	*Xtuplet	*	*below	*
!	!	!	!	!	!	!LO:DY:a
*ped	*	*	*	*	*	*
12FF#\	.	.	24FF#</LL	12.ryy	5	.
.	.	.	24F#</	.	4	.
6.ryy	.	.	24A#</	.	2	p
*	*	*	*	*	*above	*
.	.	.	24c#\	(>12c#'>/L	1	.
.	.	.	24A#</	.	.	.
.	.	.	24F#</	24ryy	.	.
.	.	.	24c#\	12c#'>/J)	.	.
.	.	.	24A#</	.	.	.
24ryy	.	.	24F#</JJ	24ryy	.	.
*	*	*	*	*	*below	*
12C#\	.	.	24C#</LL	12.ryy	5	.
.	.	.	24F#</	.	.	.
6.ryy	.	.	24A#</	.	.	.
.	.	.	24c#\	(>12c#'>/L	.	.
.	.	.	24A#</	.	.	.
.	.	.	24F#</	24ryy	.	.
.	.	.	24c#\	12c#'>/J)	.	.
.	.	.	24A#</	.	.	.
*Xped	*	*	*	*	*	*
24ryy	.	.	24F#</JJ	24ryy	.	.
12C#\	.	<	24C#</LL	12.ryy	5	.
.	.	.	24G#</	.	3	.
6.ryy	.	.	24B#</	.	2	.
.	.	.	24d#\	(>12d#'>/L	.	.
.	.	.	24B#</	.	.	.
.	.	.	24G#</	24ryy	.	.
.	.	.	24e#\	12e#'>/J)	.	.
.	.	.	24B#</	.	.	.
24ryy	.	[ f	24G#</JJ	24ryy	.	.
=2	=2	=2	=2	=2	=2	=2
*ped	*	*	*	*	*	*
12C#\	.	.	24C#</LL	12.ryy	.	.
.	.	.	24A#</	.	.	.
6.ryy	.	.	24c#</	.	.	.
.	.	.	24f#\	(>12f#'>/L	.	.
.	.	.	24c#</	.	.	.
.	.	.	24A#</	24ryy	.	.
.	.	.	24f#\	12f#'>/J)	.	.
.	.	.	24c#</	.	.	.
24ryy	.	.	24A#</JJ	24ryy	.	.
!LO:N:vis=8	!	!	!	!	!	!
32%3FF#\	.	sf	24ryy	8ryy	.	.
.	.	.	24A#</LL	.	.	.
.	.	.	24c#</	.	.	.
16%3.ryy	.	.	.	.	.	.
.	.	.	24f#/	8f#/L	.	.
.	.	.	24c#</	.	.	.
.	.	.	24A#</	.	.	.
.	.	.	24f#\	8f#/J	.	.
.	.	.	24c#</	.	.	.
.	.	.	24A#</JJ	.	.	.
12F#\	.	.	24F#</LL	12.ryy	.	.
.	.	.	24A#</	.	.	.
6.ryy	.	.	24c#</	.	.	.
.	.	.	24e#\	(>12e#^>>/L	.	.
.	.	.	24c#</	.	.	.
.	.	.	24A#</	24ryy	.	.
.	.	.	24f#\	12f#^>>/J)	.	.
.	.	.	24c#</	.	.	.
24ryy	.	.	24A#</JJ	24ryy	.	.
*Xped	*	*	*	*	*	*
!!LO:LB:g=original	!	!	!	!	!	!
=3	=3	=3	=3	=3	=3	=3
*ped	*	*	*	*	*	*
!	!	!	!	!	!	!LO:DY:b
12C#\	.	.	24C#</LL	12.ryy	5	.
.	.	.	24G#</	.	3	.
6.ryy	.	.	24B#</	.	2	.
.	.	.	24a#\	(>12a#^>>/L	.	.
.	.	.	24B#</	.	.	.
.	.	.	24G#</	24ryy	.	.
.	.	.	24a#\	12a#^>>/J)	.	.
.	.	.	24B#</	.	.	.
24ryy	.	.	24G#</JJ	24ryy	.	.
12C#\	.	>	24C#</LL	12.ryy	.	.
.	.	.	24G#</	.	.	.
6.ryy	.	.	24B#</	.	.	.
.	.	.	24g#\	(>12g#^>>/L	.	.
.	.	.	24B#</	.	.	.
.	.	.	24G#</	24ryy	.	.
.	.	.	24g#\	12g#^>>/J)	.	.
.	.	.	24B#</	.	.	.
24ryy	.	.	24G#</JJ	24ryy	.	.
12C#\	.	]	24C#</LL	12.ryy	.	.
.	.	.	24G#</	.	.	.
6.ryy	.	.	24B#</	.	.	.
.	.	.	24d#\	(>12d#'>/L	.	.
.	.	.	24B#</	.	.	.
.	.	.	24G#</	24ryy	.	.
.	.	.	24e#\	12e#'>/J)	.	.
.	.	.	24B#</	.	.	.
24ryy	.	.	24G#</JJ	24ryy	.	.
*Xped	*	*	*	*	*	*
=4	=4	=4	=4	=4	=4	=4
*ped	*	*	*	*	*	*
12F#\	.	.	24F#</LL	12.ryy	.	.
.	.	.	24A#</	.	.	.
6.ryy	.	.	24c#</	.	.	.
.	.	.	24g#\	12g#^>>/L	.	.
.	.	.	24c#</	.	.	.
.	.	.	24A#</	24ryy	.	.
.	.	.	24g#\	12g#^>>/J	.	.
.	.	.	24c#</	.	.	.
24ryy	.	.	24A#</JJ	24ryy	.	.
12F#\	.	.	24F#</LL	12.ryy	.	.
.	.	.	24A#</	.	.	.
6.ryy	.	.	24c#</	.	.	.
.	.	.	24f#\	(>12f#'>/L	.	.
.	.	.	24c#</	.	.	.
.	.	.	24A#</	24ryy	.	.
.	.	.	24f#\	12f#'>/J)	.	.
.	.	.	24c#</	.	.	.
24ryy	.	.	24A#</JJ	24ryy	.	.
12C#\	.	sf	24C#</LL	12.ryy	.	.
.	.	.	24G#</	.	.	.
6.ryy	.	.	24B#</	.	.	.
.	.	.	24e#\	(>12e#/L	.	.
.	.	.	24B#</	.	.	.
.	.	.	24G#</	24ryy	.	.
.	.	.	24d#\	12d#/J)	.	.
.	.	.	24B#</	.	.	.
24ryy	.	.	24G#</JJ	24ryy	.	.
*Xped	*	*	*	*	*	*
!!LO:LB:g=original	!	!	!	!	!	!
=5	=5	=5	=5	=5	=5	=5
*ped	*	*	*	*	*	*
12FF#\	.	f	24FF#</LL	12.ryy	.	.
.	.	.	24F#</	.	.	.
6.ryy	.	.	24A#</	.	.	p
.	.	.	24c#\	12c#'>/L	.	.
.	.	.	24A#</	.	.	.
.	.	.	24F#</	24ryy	.	.
.	.	.	24c#\	12c#'>/J	.	.
.	.	.	24A#</	.	.	.
24ryy	.	.	24F#</JJ	24ryy	.	.
12C#\	.	.	24C#</LL	12.ryy	.	.
.	.	.	24G#</	.	.	.
6.ryy	.	.	24A#</	.	.	.
.	.	.	24c#\	(>12c#'>/L	.	.
.	.	.	24A#</	.	.	.
.	.	.	24F#</	24ryy	.	.
.	.	.	24c#\	12c#'>/J)	.	.
.	.	.	24A#</	.	.	.
*Xped	*	*	*	*	*	*
24ryy	.	.	24F#</JJ	24ryy	.	.
12CC#\	.	.	24CC#</LL	12.ryy	5	.
.	.	.	24G#</	.	3	.
6.ryy	.	.	24B#</	.	2	.
.	.	.	24d#\	(>12d#^>>/L	1	.
.	.	.	24B#</	.	.	.
.	.	.	24G#</	24ryy	.	.
.	.	.	24e#\	12e#^>>/J)	.	.
.	.	.	24B#</	.	.	.
24ryy	.	.	24G#</JJ	24ryy	.	.
=6	=6	=6	=6	=6	=6	=6
12F#\	.	.	24F#</LL	12.ryy	.	.
.	.	.	24A#</	.	.	.
6.ryy	.	.	24c#</	.	.	.
.	.	.	24f#\	(>12f#'>/L	.	.
.	.	.	24c#</	.	.	.
.	.	.	24A#</	24ryy	.	.
.	.	.	24f#\	12f#'>/J)	.	.
.	.	.	24A#</	.	.	.
24ryy	.	.	24A#</JJ	24ryy	.	.
12FF#\	.	sf	24FF#</LL	12.ryy	5	.
.	.	.	24A#</	.	3	.
6.ryy	.	.	24c#</	.	2	.
.	.	.	24f#\	(>12f#'>/L	1	.
.	.	.	24c#</	.	.	.
.	.	.	24A#</	24ryy	.	.
.	.	.	24f#\	12f#'>/J)	.	.
.	.	.	24c#</	.	.	.
24ryy	.	.	24A#</JJ	24ryy	.	.
12F#\	.	.	24F#</LL	12.ryy	.	.
.	.	.	24A#</	.	.	.
6.ryy	.	.	24c#</	.	.	.
.	.	.	24e#\	(>12e#^>>/L	.	.
.	.	.	24c#</	.	.	.
.	.	.	24A#</	24ryy	.	.
.	.	.	24f#\	12f#^>>/J)	.	.
.	.	.	24c#</	.	.	.
24ryy	.	.	24A#</JJ	24ryy	.	.
*Xped	*	*	*	*	*	*
!!LO:LB:g=original	!	!	!	!	!	!
=7	=7	=7	=7	=7	=7	=7
*ped	*	*	*	*	*	*
12FF#\	.	sf	24FF#</LL	12.ryy	5	.
.	.	.	24A#</	.	3	.
6.ryy	.	.	24c##X</	.	2	.
.	.	.	24a#\	12a#^>>/L	1	.
.	.	.	24c##</	.	.	.
.	.	.	24A#</	24ryy	.	.
.	.	.	24a#\	12a#^>>/J	.	.
.	.	.	24c##</	.	.	.
24ryy	.	.	24A#</JJ	24ryy	.	.
12E#X\	.	sf	24E#X</LL	12.ryy	.	.
.	.	.	24A#</	.	.	.
6.ryy	.	.	24c##</	.	.	.
.	.	.	24a#\	12a#^>>/L	.	.
.	.	.	24c##</	.	.	.
.	.	.	24A#</	24ryy	.	.
.	.	.	24a#\	12a#^>>/J	.	.
.	.	.	24c##</	.	.	.
24ryy	.	.	24A#</JJ	24ryy	.	.
12AA#\	.	sf	24AA#</LL	12.ryy	.	.
.	.	.	24A#</	.	.	.
12r	.	.	24c##</	.	.	.
.	.	.	24e#\	(>12e#^>>/L	.	.
6ryy	.	.	24c##</	.	.	.
.	.	.	24A#</	24ryy	.	.
.	.	.	24f#\	12f#^>>/J)	.	.
.	.	.	24c##</	.	.	.
24ryy	.	.	24A#</JJ	24ryy	.	.
*Xped	*	*	*	*	*	*
=8	=8	=8	=8	=8	=8	=8
*ped	*	*	*	*	*	*
12D#\	.	.	24D#</LL	12.ryy	.	.
.	.	.	24F#</	.	.	.
6.ryy	.	.	24A#</	.	.	.
.	.	.	24d#\	12d#/L	.	.
.	.	.	24A#</	.	.	.
.	.	.	24F#</	24ryy	.	.
.	.	.	24d#\	12d#/J	.	.
.	.	.	24A#</	.	.	.
24ryy	.	.	24F#</JJ	24ryy	.	.
12D#\	.	.	24D#</LL	12.ryy	.	.
.	.	.	24F#</	.	.	.
6.ryy	.	.	24A#</	.	.	.
!	!	!	!	!LO:TX:t=P:problem:błąd wyświetlania Verovio - unisono	!	!
.	.	.	24d#>\	12d#/	.	.
.	.	.	24A#</	.	.	.
.	.	.	24F#</	6ryy	.	.
*	*below	*	*	*	*	*
.	5	.	24D#</	.	.	.
.	1	.	24D#</	.	.	.
24ryy	.	.	24DD#<'>/JJ	.	.	.
4.r	.	.	4.ryy	4.ryy	.	.
*	*	*	*v	*v	*	*
=9	=9	=9	=9	=9	=9
8%9ryy	.	.	2.dd#;\	.	pp
.	.	.	4.r	.	.
!!LO:LB:g=original	!	!	!	!	!
*	*	*	*Xped	*	*
=10	=10	=10	=10	=10	=10
*	*	*	*^	*	*
*ped	*	*	*	*	*below	*
12FF#\	.	f	24FF#</LL	12.ryy	5	.
*	*	*	*	*	*above	*
.	.	.	24f#>\	.	4	.
6.ryy	.	.	24a#>\	.	2	.
.	.	.	24cc#\	12cc#/L	1	.
.	.	.	24a#>\	.	.	.
.	.	.	24f#>\	24ryy	.	.
.	.	.	24cc#\	12cc#/J	.	.
.	.	.	24a#>\	.	.	.
24ryy	.	.	24f#>\JJ	24ryy	.	.
12c#>\	.	.	24c#>/LL	12.ryy	.	.
.	.	.	24f#>/	.	.	.
6.ryy	.	.	24a#>/JJ	.	.	.
.	.	.	24cc#\LL	12cc#/L	.	.
.	.	.	24a#>\	.	.	.
.	.	.	24f#>\	24ryy	.	.
.	.	.	24cc#\	12cc#/J	.	.
.	.	.	24a#>\	.	.	.
24ryy	.	.	24f#>\JJ	24ryy	.	.
*Xped	*	*	*	*	*	*
6c#>/	.	.	24c#>\LL	12.ryy	.	.
.	.	.	24g#>\	.	.	.
.	.	.	24b#>\JJ	.	.	.
.	.	.	24dd#\LL	12dd#^>/L	.	.
6ryy	.	.	24b#>\	.	.	.
.	.	.	24g#>\	24ryy	.	.
.	.	.	24ee#\	12ee#^>/J	.	.
.	.	.	24b#>\	.	.	.
24ryy	.	.	24g#>\JJ	24ryy	.	.
=11	=11	=11	=11	=11	=11	=11
12F#\	.	.	24F#</LL	12.ryy	.	.
.	.	.	24a#>/	.	.	.
6.ryy	.	.	24cc#>\	.	.	.
.	.	.	24ff#\	12ff#/L	.	.
.	.	.	24cc#>\	.	.	.
.	.	.	24a#>\	24ryy	.	.
.	.	.	24ff#\	12ff#/J	.	.
.	.	.	24cc#>\	.	.	.
24ryy	.	.	24a#>\JJ	24ryy	.	.
12f#>\	.	.	24f#>/LL	12.ryy	.	.
.	.	.	24a#>/	.	.	.
6.ryy	.	.	24cc#>/JJ	.	.	.
.	.	.	24ff#\LL	12ff#/L	.	.
.	.	.	24cc#>\	.	.	.
.	.	.	24a#>\	24ryy	.	.
.	.	.	24ff#\	12ff#/J	.	.
.	.	.	24cc#>\	.	.	.
24ryy	.	.	24a#>\JJ	24ryy	.	.
12f#>\	.	.	24f#>/LL	12.ryy	.	.
.	.	.	24a#>/	.	.	.
6.ryy	.	.	24cc#>/JJ	.	.	.
.	.	.	24ee#\LL	(>12ee#^>/L	.	.
.	.	.	24cc#>\	.	.	.
.	.	.	24a#>\	24ryy	.	.
.	.	.	24ff#\	12ff#^>/J)	.	.
.	.	.	24cc#>\	.	.	.
24ryy	.	.	24a#>\JJ	24ryy	.	.
!!LO:LB:g=original	!	!	!	!	!	!
=12	=12	=12	=12	=12	=12	=12
*	*	*	*	*	*below	*
12c#\	.	.	24c#</LL	12.ryy	5	.
*	*	*	*	*	*above	*
.	.	.	24g#>\	.	3	.
6.ryy	.	.	24a#>\	.	2	.
.	.	.	24aa#\	12aa#^>/L	1	.
.	.	.	24b#>\	.	.	.
.	.	.	24g#>\	24ryy	.	.
.	.	.	24aa#\	12aa#^>/J	.	.
.	.	.	24b#>\	.	.	.
24ryy	.	.	24g#>\JJ	24ryy	.	.
12c#\	.	.	24c#</LL	12.ryy	.	.
.	.	.	24g#>\	.	.	.
6.ryy	.	.	24b#>\	.	.	.
.	.	.	24gg#\	12gg#^>/L	.	.
.	.	.	24b#>\	.	.	.
.	.	.	24g#>\	24ryy	.	.
.	.	.	24gg#\	12gg#^>/J	.	.
.	.	.	24b#>\	.	.	.
24ryy	.	.	24g#>\JJ	24ryy	.	.
12c#\	.	.	24c#</LL	12.ryy	.	.
.	.	.	24g#>\	.	.	.
6.ryy	.	.	24b#>\	.	.	.
.	.	.	24dd#\	(>12dd#/L	.	.
.	.	.	24b#>\	.	.	.
.	.	.	24g#>\	24ryy	.	.
.	.	.	24ee#\	12ee#/J)	.	.
.	.	.	24b#>\	.	.	.
24ryy	.	.	24g#>\JJ	24ryy	.	.
=13	=13	=13	=13	=13	=13	=13
12F#\	.	.	24F#</LL	12.ryy	.	.
.	.	.	24a#\	.	.	.
6.ryy	.	.	24cc#\	.	.	.
.	.	.	24gg#\	12gg#^>/L	.	.
.	.	.	24cc#\	.	.	.
.	.	.	24a#\	24rgyy	.	.
.	.	.	24gg#\	12gg#^>/J	.	.
.	.	.	24cc#\	.	.	.
24ryy	.	.	24a#\JJ	24ryy	.	.
12f#>\	.	.	24f#/LL	12.ryy	.	.
.	.	.	24a#/	.	.	.
6.ryy	.	.	24cc#/JJ	.	.	.
.	.	.	24ff#\LL	12ff#^>/L	.	.
.	.	.	24cc#\	.	.	.
.	.	.	24a#\	24ryy	.	.
.	.	.	24ff#\	12ff#^>/J	.	.
.	.	.	24cc#\	.	.	.
24ryy	.	.	24a#\JJ	24ryy	.	.
12c#\	.	.	24c#</LL	12.ryy	.	.
.	.	.	24g#\	.	.	.
!	!	!	!	!	!	!LO:DY:a
6.ryy	.	.	24b#\	.	.	p
.	.	.	24ee#\	(>12ee#/L	.	.
.	.	.	24b#\	.	.	.
.	.	.	24g#\	24ryy	.	.
.	.	.	24dd#\	12dd#/J)	.	.
.	.	.	24b#\	.	.	.
24ryy	.	.	24g#\JJ	24ryy	.	.
!!LO:PB:g=original	!	!	!	!	!	!
=14	=14	=14	=14	=14	=14	=14
*ped	*	*	*	*	*below	*
12FF#\	.	f	24FF#</LL	12.ryy	5	.
.	.	.	24F#</	.	4	.
6.ryy	.	.	24A#</	.	2	.
*	*	*	*	*	*above	*
.	.	.	24c#\	12c#/L	1	.
.	.	.	24A#</	.	.	.
.	.	.	24F#</	24ryy	.	.
.	.	.	24c#\	12c#/J	.	.
.	.	.	24A#</	.	.	.
24ryy	.	.	24F#</JJ	24ryy	.	.
12C#\	.	sf	24C#</LL	12.ryy	.	.
.	.	.	24F#</	.	.	.
6.ryy	.	.	24A#</	.	.	.
.	.	.	24c#\	12c#/L	.	.
.	.	.	24A#</	.	.	.
.	.	.	24F#</	24ryy	.	.
.	.	.	24c#\	12c#/J	.	.
.	.	.	24A#</	.	.	.
24ryy	.	.	24F#</JJ	24ryy	.	.
*	*	*	*	*	*below	*
12CC#\	.	.	24CC#</LL	12.ryy	5	.
.	.	.	24G#</	.	3	.
6.ryy	.	.	24B#</	.	2	.
*	*	*	*	*	*above	*
.	.	.	24d#\	12d#^>/L	1	.
.	.	.	24B#</	.	.	.
.	.	.	24G#</	24ryy	.	.
.	.	.	24e#\	12e#^>/J	.	.
.	.	.	24B#</	.	.	.
24ryy	.	.	24G#</JJ	24ryy	.	.
=15	=15	=15	=15	=15	=15	=15
12F#\	.	.	24F#</LL	12.ryy	.	.
.	.	.	24A#</	.	.	.
6.ryy	.	.	24c#</	.	.	.
.	.	.	24f#\	12f#/L	.	.
.	.	.	24c#</	.	.	.
.	.	.	24A#</	24ryy	.	.
.	.	.	24f#\	12f#/J	.	.
.	.	.	24c#</	.	.	.
24ryy	.	.	24A#</JJ	24ryy	.	.
12FF#\	.	sf	24FF#</LL	12.ryy	.	.
.	.	.	24A#</	.	.	.
6.ryy	.	.	24c#</	.	.	.
.	.	.	24f#\	12f#^>/L	.	.
.	.	.	24c#</	.	.	.
.	.	.	24A#</	24ryy	.	.
.	.	.	24f#\	12f#^>/J	.	.
.	.	.	24c#</	.	.	.
24ryy	.	.	24A#</JJ	24ryy	.	.
12F#\	.	.	24F#</LL	12.ryy	.	.
.	.	.	24A#</	.	.	.
6.ryy	.	.	24c#</	.	.	.
.	.	.	24e#\	(>12e#^>/L	.	.
.	.	.	24c#</	.	.	.
.	.	.	24A#</	24ryy	.	.
.	.	.	24f#\	12f#^>/J)	.	.
.	.	.	24c#</	.	.	.
24ryy	.	.	24A#</JJ	24ryy	.	.
!!LO:LB:g=original	!	!	!	!	!	!
=16	=16	=16	=16	=16	=16	=16
*ped	*	*	*	*	*	*
12AA#\	.	.	24AA#</LL	12.ryy	.	.
.	.	.	24A#</	.	.	.
6.ryy	.	.	24c##X</	.	.	.
.	.	.	24a#\	12a#^>/L	.	.
.	.	.	24c##</	.	.	.
.	.	.	24A#</	24ryy	.	.
.	.	.	24a#\	12a#^>/J	.	.
.	.	.	24c##</	.	.	.
24ryy	.	.	24A#</JJ	24ryy	.	.
12E#\	.	.	24E#</LL	12.ryy	.	.
.	.	.	24A#</	.	.	.
6.ryy	.	.	24c##</	.	.	.
.	.	.	24a#\	12a#^>/L	.	.
.	.	.	24c##</	.	.	.
.	.	.	24A#</	24ryy	.	.
.	.	.	24a#\	12a#^>/J	.	.
*	*	*	*	*	*below	*
.	.	.	24c##</	.	2	.
24ryy	.	.	24A#</JJ	24ryy	4	.
.	.	sf	8qAA#</	.	1	.
12AAA#\	.	.	24AAA#</LL	12.ryy	5	.
.	.	.	24A#</	.	.	.
6.ryy	.	.	24c##</	.	.	.
.	.	.	24e#\	12e#^>/L	.	.
.	.	.	24c##</	.	.	.
.	.	.	24A#</	24ryy	.	.
.	.	.	24f#\	12f#^>/J	.	.
.	.	.	24c##</	.	.	.
24ryy	.	.	24A#</JJ	24ryy	.	.
*Xped	*	*	*	*	*	*
=17	=17	=17	=17	=17	=17	=17
*ped	*	*	*	*	*	*
12D#\	.	.	24D#</LL	12.ryy	.	.
.	.	.	24F#</	.	.	.
6.ryy	.	.	24A#</	.	.	.
.	.	.	24d#\	12d#/L	.	.
.	.	.	24A#</	.	.	.
.	.	.	24F#</	24ryy	.	.
.	.	.	24d#\	12d#/J	.	.
.	.	.	24A#</	.	.	.
24ryy	.	.	24F#</JJ	24ryy	.	.
6D#\	.	.	24D#</LL	12.ryy	.	.
.	.	.	24F#</	.	.	.
.	.	.	24A#</	.	.	.
.	.	.	24d#\	6d#/	.	.
6ryy	.	.	24A#</	.	.	.
.	.	.	24F#</	.	.	.
.	.	.	24D#</	.	.	.
.	.	.	24D#</	12ryy	.	.
24ryy	.	.	24DD#<'>/JJ	.	.	.
4.r	.	.	4.ryy	4.ryy	.	.
*	*	*	*v	*v	*	*
=18	=18	=18	=18	=18	=18
.	.	.	16qqa#/LL	.	pp
.	.	.	16qqdd#/	.	.
.	.	.	16qqff#/JJ	.	.
8%9ryy	.	.	2.ddd#\	.	.
.	.	.	4.r	.	.
!!LO:LB:g=original	!	!	!	!	!
*	*	*	*Xped	*	*
=19	=19	=19	=19	=19	=19
*	*	*	*^	*	*
12CC#\	.	.	24CC#</LL	12.ryy	.	.
.	.	.	24G#</	.	.	.
6.ryy	.	.	24B#</	.	.	.
.	.	.	24e#\	12e#'>/L	.	.
.	.	.	24B#</	.	.	.
.	.	.	24G#</	24ryy	.	.
.	.	.	24e#\	12e#'>/J	.	.
.	.	.	24B#</	.	.	.
24ryy	.	.	24G#</JJ	24ryy	.	.
12C#\	.	.	24C#</LL	12.ryy	.	.
.	.	.	24G#</	.	.	.
6.ryy	.	.	24B#</	.	.	.
.	.	.	24e#\	(>12e#'>/L	.	.
.	.	.	24B#</	.	.	.
.	.	.	24G#</	24ryy	.	.
.	.	.	24e#\	12e#'>/J)	.	.
.	.	.	24B#</	.	.	.
24ryy	.	.	24G#</JJ	24ryy	.	.
12CC#\	.	sf	24CC#</LL	12.ryy	.	.
.	.	.	24G#</	.	.	.
6.ryy	.	.	24B#</	.	.	.
.	.	.	24d#\	(>12d#^>/L	.	.
.	.	.	24B#</	.	.	.
.	.	.	24G#</	24ryy	.	.
.	.	.	24e#\	12e#^>/J)	.	.
.	.	.	24B#</	.	.	.
24ryy	.	.	24G#</JJ	24ryy	.	.
=20	=20	=20	=20	=20	=20	=20
12F#\	.	.	24F#</LL	12.ryy	.	.
.	.	.	24A#</	.	.	.
6.ryy	.	.	24c#</	.	.	.
.	.	.	24g#\	12g#^>/L	.	.
.	.	.	24c#</	.	.	.
.	.	.	24A#</	24ryy	.	.
.	.	.	24g#\	12g#^>/J	.	.
.	.	.	24c#</	.	.	.
24ryy	.	.	24A#</JJ	24ryy	.	.
12F#\	.	.	24F#</LL	12.ryy	.	.
.	.	.	24A#</	.	.	.
6.ryy	.	.	24c#</	.	.	.
!	!	!	!	!	!	!LO:DY:a
.	.	.	24f#\	(>12f#'>/L	.	p
.	.	.	24c#</	.	.	.
.	.	.	24A#</	24ryy	.	.
.	.	.	24f#\	12f#'>/J)	.	.
.	.	.	24c#</	.	.	.
24ryy	.	.	24A#</JJ	24ryy	.	.
12FF#\	.	sf	24FF#</LL	12.ryy	.	.
.	.	.	24A#</	.	.	.
6.ryy	.	.	24c#</	.	.	.
.	.	.	24f#\	12f#^>/L	.	.
.	.	.	24c#</	.	.	.
.	.	.	24A#</	24ryy	.	.
.	.	.	24f#\	12f#^>/J	.	.
.	.	.	24c#</	.	.	.
24ryy	.	.	24A#</JJ	24ryy	.	.
!!LO:LB:g=original	!	!	!	!	!	!
=21	=21	=21	=21	=21	=21	=21
*ped	*	*	*	*	*	*
!	!	!	!	!	!	!LO:HP:b:t=cres
12D#\	.	.	24D#</LL	12.ryy	.	<
.	.	.	24A#</	.	.	.
6.ryy	.	.	24c#</	.	.	.
.	.	.	24f##X\	12f##^>/L	.	.
.	.	.	24c#</	.	.	.
.	.	.	24A#</	24ryy	.	.
.	.	.	24f##\	12f##^>/J	.	.
.	.	.	24c#</	.	.	.
24ryy	.	.	24A#</JJ	24ryy	.	.
!	!	!	!	!	!	!LO:DY:b=2
12DD#\	.	.	24DD#</LL	12.ryy	.	sf
.	.	.	24A#</	.	.	.
6.ryy	.	.	24c#</	.	.	.
.	.	.	24f##\	12f##^>/L	.	.
.	.	.	24c#</	.	.	.
.	.	.	24A#</	24ryy	.	.
.	.	.	24f##\	12f##^>/J	.	.
.	.	.	24c#</	.	.	.
24ryy	.	.	24A#</JJ	24ryy	.	.
12D#\	.	.	24D#</LL	12.ryy	.	.
.	.	.	24A#</	.	.	.
6.ryy	.	.	24c#</	.	.	.
.	.	.	24e#\	(>12e#^>/L	.	.
.	.	.	24c#</	.	.	.
.	.	.	24A#</	24ryy	.	.
.	.	.	24f##\	12f##^>/J)	.	.
.	.	.	24c#</	.	.	.
24ryy	.	.	24A#</JJ	24ryy	.	.
*Xped	*	*	*	*	*	*
=22	=22	=22	=22	=22	=22	=22
!	!	!	!	!	!	!LO:DY:b=2
12G#\	.	.	24G#</LL	12.ryy	.	mf
.	.	.	24B#</	.	.	.
6.ryy	.	.	24d#</	.	.	.
.	.	.	24a#\	12a#^>/L	.	.
.	.	.	24d#</	.	.	.
.	.	.	24B#</	24ryy	.	.
.	.	.	24a#\	12a#^>/J	.	.
.	.	.	24d#</	.	.	.
24ryy	.	.	24B#</JJ	24ryy	.	.
12G#\	.	.	24G#</LL	12.ryy	.	.
.	.	.	24B#</	.	.	.
6.ryy	.	.	24d#</	.	.	.
!	!	!	!	!	!	!LO:DY:a
.	.	.	24g#\	(>12g#'>/L	.	p
.	.	.	24d#</	.	.	.
.	.	.	24B#</	24ryy	.	.
.	.	.	24g#\	12g#'>/J)	.	.
.	.	.	24d#</	.	.	.
24ryy	.	.	24B#</JJ	24ryy	.	.
!	!	!	!	!	!	!LO:DY:b=2
12GG#\	.	.	24GG#</LL	12.ryy	5	sf
.	.	.	24G#</	.	3	.
6.ryy	.	.	24B#</	.	2	.
.	.	.	24g#\	12g#^>/L	1	.
.	.	.	24B#</	.	.	.
.	.	.	24G#</	24ryy	.	.
.	.	.	24f#\	12f#^>/J	.	.
.	.	.	24B#</	.	.	.
24ryy	.	.	24G#</JJ	24ryy	.	.
!!LO:LB:g=original	!	!	!	!	!	!
=23	=23	=23	=23	=23	=23	=23
*ped	*	*	*	*	*	*
!	!	!	!LO:TX:b:i:t=dolce	!	!	!
12C#\	.	.	24C#</LL	12.ryy	.	.
.	.	.	24G#</	.	.	.
6.ryy	.	.	24B#</	.	.	.
.	.	.	24e#\	(>12e#'>/L	.	.
.	.	.	24B#</	.	.	.
.	.	.	24G#</	24ryy	.	.
.	.	.	24e#\	12e#'>/J)	.	.
.	.	.	24B#</	.	.	.
24ryy	.	.	24G#</JJ	24ryy	.	.
!	!	!	!	!	!	!LO:DY:b=2
12CC#\	.	.	24CC#</LL	12.ryy	.	sf
.	.	.	24G#</	.	.	.
6.ryy	.	.	24B#</	.	.	.
.	.	.	24e#\	(>12e#'>/L	.	.
.	.	.	24B#</	.	.	.
.	.	.	24G#</	24ryy	.	.
.	.	.	24e#\	12e#'>/J)	.	.
.	.	.	24B#</	.	.	.
24ryy	.	.	24G#</JJ	24ryy	.	.
12C#\	.	.	24C#</LL	12.ryy	.	.
.	.	.	24G#</	.	.	.
6.ryy	.	.	24B#</	.	.	.
!	!	!	!	!	!	!LO:HP:a
.	.	.	24d#\	(>12d#/L	.	<
.	.	.	24B#</	.	.	.
.	.	.	24G#</	24ryy	.	.
.	.	.	24e#\	12e#/J)	.	.
.	.	.	24B#</	.	.	.
24ryy	.	.	24G#</JJ	24ryy	.	[
*Xped	*	*	*	*	*	*
=24	=24	=24	=24	=24	=24	=24
12F#\	.	.	24F#</LL	12.ryy	.	.
.	.	.	24A#</	.	.	.
6.ryy	.	.	24c#</	.	.	.
.	.	.	24g#\	12g#^>/L	.	.
.	.	.	24c#</	.	.	.
.	.	.	24A#</	24ryy	.	.
.	.	.	24g#\	12g#^>/J	.	.
.	.	.	24c#</	.	.	.
24ryy	.	.	24A#</JJ	24ryy	.	.
12F#\	.	.	24F#</LL	12.ryy	.	.
.	.	.	24A#</	.	.	.
6.ryy	.	.	24c#</	.	.	.
.	.	.	24f#\	(>12f#'>/L	.	.
.	.	.	24c#</	.	.	.
.	.	.	24A#</	24ryy	.	.
.	.	.	24f#\	12f#'>/J)	.	.
.	.	.	24c#</	.	.	.
24ryy	.	.	24A#</JJ	24ryy	.	.
12BB#\	.	.	24BB#</LL	12.ryy	.	.
.	.	.	24D#</	.	.	.
6.ryy	.	.	24G#</	.	.	.
!	!	!	!	!	!	!LO:HP:a:t=dim
.	.	.	24e#\	(>12e#/L	.	>
.	.	.	24G#</	.	.	.
.	.	.	24D#</	24ryy	.	.
.	.	.	24d#\	12d#/J)	.	.
.	.	.	24G#</	.	.	.
24ryy	.	.	24D#</JJ	24ryy	.	.
!!LO:LB:g=original	!	!	!	!	!	!
=25	=25	=25	=25	=25	=25	=25
6C#\	.	.	24C#</LL	12.ryy	.	.
.	.	.	24F#</	.	.	.
.	.	.	24A#</	.	.	.
.	.	.	24c#\	12c#^>/L	.	.
6ryy	.	.	24A#</	.	.	.
.	.	.	24F#</	24ryy	.	.
.	.	.	24c#\	12c#/J	.	.
.	.	.	24A#</	.	.	.
24ryy	.	.	24F#</JJ	24ryy	.	.
6C#\	.	.	24C#</LL	12.ryy	.	.
.	.	.	24F#</	.	.	.
.	.	.	24A#</	.	.	.
.	.	.	24d#\	(>12d#/L	.	.
6ryy	.	.	24A#</	.	.	.
.	.	.	24F#</	24ryy	.	.
.	.	.	24c#\	12c#/J)	.	.
.	.	.	24A#</	.	.	.
24ryy	.	.	24F#</JJ	24ryy	.	.
!	!	!	!	!	!	!LO:DY:b
12CC#\	.	.	24CC#</LL	12.ryy	.	pp
.	.	.	24C#</	.	.	.
6.ryy	.	.	24E#</JJ	.	.	.
.	.	.	24B#<\LL	(>12d#<^>/L	.	.
.	.	.	24E#<\	.	.	.
.	.	.	24C#<\	24ryy	.	.
.	.	.	24A#<\	12A#</J)	.	.
.	.	.	24E#<\	.	.	.
24ryy	.	.	24C#<\JJ	24ryy	.	.
*	*	*	*v	*v	*	*
=26	=26	=26	=26	=26	=26
*ped	*	*	*	*	*
12FF#\	.	.	24FF#</LL	.	.
.	.	.	24C#</	.	.
24ryy	.	.	24F#</JJ	.	.
24A#\LL	.	.	12A#</L	.	.
24F#\	.	.	.	.	.
24C#\	.	.	24ryy	.	.
24A#\	.	.	12A#</J	.	.
24F#\	.	.	.	.	.
24C#\JJ	.	.	24ryy	.	.
12FF#\	.	.	(24FF#</LL	.	.
.	.	.	24C#</	.	.
24ryy	.	.	24F#</JJ	.	.
24A#\LL	.	.	12A#</	.	.
24F#\	.	.	.	.	.
24C#\JJ	.	.	12ryy	.	.
24FF#\	.	.	.	.	.
12ryy	.	.	24FF#</LL	.	.
.	.	.	24FFF#</JJ)	.	.
4.ryy	.	.	4.r<	.	.
!!LO:LB:g=original	!	!	!	!	!
*kcancel	*	*	*kcancel	*	*
==27	==27	==27	==27	==27	==27
*k[b-e-a-d-g-c-]	*	*	*k[b-e-a-d-g-c-]	*	*
*	*	*	*^	*	*
!	!	!	!LO:TX:b:i:t=marcato	!	!	!
24B-\LL	.	.	(4.B-</<	12.ryy	.	f
24A-\	.	.	.	.	.	.
24F\	.	.	.	.	.	.
24BB-\	.	.	.	12BB-</L	.	.
24F\	.	.	.	.	.	.
24A-\	.	.	.	24ryy	.	.
24BB-\	.	.	.	12BB-</J	.	.
24F\	.	.	.	.	.	.
24A-\JJ	.	.	.	24ryy	.	.
24cn\LL	.	.	4.cn</	12.ryy	.	.
24A-\	.	.	.	.	.	.
24F\	.	.	.	.	.	.
24BB-\	.	.	.	12BB-</L	.	.
24F\	.	.	.	.	.	.
24A-\	.	.	.	24ryy	.	.
24BB-\	.	.	.	12BB-</J	.	.
24F\	.	.	.	.	.	.
24A-\JJ	.	.	.	24ryy	.	.
24dn\LL	.	.	4.dn</)	12.ryy	.	.
24A-\	.	.	.	.	.	.
24F\	.	.	.	.	.	.
24BB-\	.	.	.	12BB-</L	.	.
24F\	.	.	.	.	.	.
24A-\	.	.	.	24ryy	.	.
24BB-\	.	.	.	12BB-</J	.	.
24F\	.	.	.	.	.	.
24A-\JJ	.	.	.	24ryy	.	.
=28	=28	=28	=28	=28	=28	=28
!	!	!	!LO:TX:t=P:problem:z taktami 28 i 30 jest coś nie tak, mam nadzieję, że uda się to poprawić humdrumowcowi,\n jeśli nie to proszę o odesłanie (siedziałem nad tym prawie 3 dni	!	!	!
!	!	!	!LO:N:vis=4	!LO:N:vis=4	!	!
24r	.	.	N[<18f/	18f\	.	.
24B-/LL	.	.	.	.	.	.
.	.	.	9..ryy	18ryy	.	.
24G-/	.	.	.	.	.	.
.	.	.	.	72ryy	.	.
!	!	!	!	!LO:N:vis=8	!	!
24E-/	.	.	.	36E-<\L	.	.
.	.	.	.	18.ryy	.	.
24G-/	.	.	.	.	.	.
24B-/	.	.	.	.	.	.
.	.	.	.	72ryy	.	.
!	!	!	!LO:N:vis=8.	!LO:N:vis=8	!	!
24E-/	.	.	36.f/LN]	36E-<\J	.	.
.	.	.	.	18.ryy	.	.
24G-/	.	.	36.ryy	.	.	.
!	!	!	!LO:N:vis=16	!	!	!
24B-/JJ	.	.	72e-/Jk	.	.	.
.	.	.	36ryy	.	.	.
.	.	.	.	72ryy	.	.
!	!	!	!	!	!	!LO:DY:b=2
4.ryy	.	.	16e-\LL	4e-/	.	p
.	.	.	16B-</	.	2	.
.	.	.	16G-</	.	4	.
.	.	.	16B-</JJ	.	2	.
!	!	!	!LO:N:vis=16	!	!	!
.	.	.	8G-<\	8ryy	5	.
16G-/LL	.	.	4G-<\	4ryy	1	pp
16D-/	.	.	.	.	.	.
16BB-/	.	.	.	.	.	.
16D-/JJ	.	.	.	.	.	.
!	!	!	!LO:N:vis=16	!	!	!
8ryy	.	.	8GG-<\	8ryy	.	.
!!LO:LB:g=original	!	!	!	!	!	!
=29	=29	=29	=29	=29	=29	=29
*^	*	*	*	*	*	*
24d->\LL	8%9ryy	f	.	(>4.d-^>/	12.ryy	.	.
24c-X\	.	.	.	.	.	.	.
24A-\	.	.	.	.	.	.	.
24D-\	.	.	.	.	12D-</L	.	.
24A-\	.	.	.	.	.	.	.
24c-\	.	.	.	.	24ryy	.	.
24D-\	.	.	.	.	12D-</J	.	.
24A-\	.	.	.	.	.	.	.
24c-\JJ	.	.	.	.	24ryy	.	.
24e->\LL	.	.	.	4.e-^>/	12.ryy	.	.
24c-\	.	.	.	.	.	.	.
24A-\	.	.	.	.	.	.	.
24D-\	.	.	.	.	12D-</L	.	.
24A-\	.	.	.	.	.	.	.
24c-\	.	.	.	.	24ryy	.	.
24D-\	.	.	.	.	12D-</J	.	.
24A-\	.	.	.	.	.	.	.
24c-\JJ	.	.	.	.	24ryy	.	.
24f>\LL	.	.	.	4.f^>/)	12.ryy	.	.
24c-\	.	.	.	.	.	.	.
24A-\	.	.	.	.	.	.	.
24D-\	.	.	.	.	12D-</L	.	.
24A-\	.	.	.	.	.	.	.
24c-\	.	.	.	.	24ryy	.	.
24D-\	.	.	.	.	12D-</J	.	.
24A-\	.	.	.	.	.	.	.
24c-\JJ	.	.	.	.	24ryy	.	.
*v	*v	*	*	*	*	*	*
*	*	*	*v	*v	*	*
=30	=30	=30	=30	=30	=30
*	*	*	*	*	*^
!	!	!	!	!	!LO:DY:b	!
!	!	!	!	!	!	!LO:DY:a
24a->\LL	.	.	N[6a-/	.	p	sf
24d-\	.	.	.	.	.	.
24B-\	.	.	.	.	.	.
24G-\	.	.	.	.	.	.
24B-\	.	.	12ryy	.	.	.
24d-\	.	.	.	.	.	.
!	!	!	!LO:N:vis=8.	!	!	!
24G-\	.	.	12a-/LN]	.	.	.
24B-\	.	.	.	.	.	.
24d-\JJ	.	.	24g-/Jk	.	.	.
!	!	!	!	!	!	!LO:DY:b=2
4.ryy	.	.	16g-/LL	.	.	p
.	.	.	16d-</	.	.	.
.	.	.	16B-</	.	.	.
.	.	.	16d-</JJ	.	.	.
.	.	.	8G-</	.	.	.
16G-\LL	.	.	4G-</	.	pp	.
16D-\	.	.	.	.	.	.
16BB-\	.	.	.	.	.	.
16D-\JJ	.	.	.	.	.	.
8GG-/	.	.	8EE-</yy	.	.	.
*	*	*	*	*	*v	*v
=31	=31	=31	=31	=31	=31
*	*	*	*^	*	*
24an>\LL	.	.	(4.an/	12.reyy	.	.
24e-\	.	.	.	.	.	.
24cn\	.	.	.	.	.	.
!	!	!	!	!	!	!LO:HP:a
24F\	.	.	.	12F</L	.	>
24c\	.	.	.	.	.	.
24e-\	.	.	.	24ryy	.	.
24F\	.	.	.	12F</J	.	.
24c\	.	.	.	.	.	.
24e-\JJ	.	.	.	24ryy	.	.
24b->\LL	.	.	4.b-/	12.ryy	.	.
24e-\	.	.	.	.	.	.
24c\	.	.	.	.	.	.
24F\	.	.	.	12F</L	.	.
24c\	.	.	.	.	.	.
24e-\	.	.	.	24ryy	.	.
24F\	.	.	.	12F</J	.	.
24c\	.	.	.	.	.	.
24e-\JJ	.	.	.	24ryy	.	.
24ccn>\LL	.	.	4.ccn/)	12.ryy	.	]
24e-\	.	.	.	.	.	.
24c\	.	.	.	.	.	.
24F\	.	.	.	12F</L	.	.
24c\	.	.	.	.	.	.
24e-\	.	.	.	24ryy	.	.
24F\	.	.	.	12F</J	.	.
24c\	.	.	.	.	.	.
24e-\JJ	.	.	.	24ryy	.	.
=32	=32	=32	=32	=32	=32	=32
24ccn>\LL	.	.	(4.ccn/	12.reyy	.	.
24f\	.	.	.	.	.	.
24dn\	.	.	.	.	.	.
24B-\	.	.	.	12B-</L	.	.
24d\	.	.	.	.	.	.
24f\	.	.	.	24ryy	.	.
24B-\	.	.	.	12B-</J	.	.
24f\	.	.	.	.	.	.
24a-\JJ	.	.	.	24ryy	.	.
24cc-X>\LL	.	.	4.cc-X/	3ryy	.	pp
24f\	.	.	.	.	.	.
24d\	.	.	.	.	.	.
24B-\	.	.	.	.	.	.
24d\	.	.	.	.	.	.
24f\	.	.	.	.	.	.
24B-\	.	.	.	.	.	.
24d\	.	.	.	.	.	.
24f\JJ	.	.	.	24ryy	.	.
24b->\LL	.	.	N(4.b-/)	3ryy	.	.
24f\	.	.	.	.	.	.
!LO:TX:a:i:t=rall	!	!	!	!	!	!
24d\	.	.	.	.	.	.
24B-\	.	.	.	.	.	.
24d\	.	.	.	.	.	.
24f\	.	.	.	.	.	.
24b->\	.	.	.	.	.	.
24dn>\JJN)	.	.	.	.	.	.
24ryy	.	.	.	24ryy	.	.
*	*	*	*v	*v	*	*
=33	=33	=33	=33	=33	=33
!	!	!	!LO:TX:b:t=Les 2	!	!
8%9ryy	.	.	8f\L	.	.
.	.	.	8b-\	.	.
.	.	.	8ddn\J	.	.
*	*	*	*ped	*	*
.	.	.	8ff\L	.	.
.	.	.	8bb-\	.	.
.	.	.	8ddd-\J	.	.
.	.	.	4.fff\	.	.
!!LO:LB:g=original	!	!	!	!	!
=34	=34	=34	=34	=34	=34
1ryy	.	.	2.bbb-;<\	.	.
.	.	.	4r	.	ppp
=35	=35	=35	=35	=35	=35
*	*	*	*^	*	*
24gn>\LL	.	.	(4.gn/	12.reyy	.	.
24d-\	.	.	.	.	.	.
!LO:TX:a:i:t=risolato	!	!	!	!	!	!
24B-\	.	.	.	.	.	.
24C-\	.	.	.	12C-</L	.	.
24B-\	.	.	.	.	.	.
24d-\	.	.	.	24ryy	.	.
24C-\	.	.	.	12C-</J	.	.
24B-\	.	.	.	.	.	.
24d-\JJ	.	.	.	24ryy	.	.
24a->\LL	.	.	4.a-/	12.ryy	.	.
24d-\	.	.	.	.	.	.
24B-\	.	.	.	.	.	.
24C-\	.	.	.	12C-</L	.	.
24B-\	.	.	.	.	.	.
24d-\	.	.	.	24ryy	.	.
24C-\	.	.	.	12C-</J	.	.
24B-\	.	.	.	.	.	.
24d-\JJ	.	.	.	24ryy	.	.
!	!	!	!LO:TX:t=P:problem:zgadza się?	!	!	!
80%3b->\LL	.	.	(20%3.b-/)	8ryy	.	.
80%3d-\	.	.	.	.	.	.
80%3B-\	.	.	.	.	.	.
80%3E-\	.	.	.	.	.	.
.	.	.	.	8E-</L	.	.
80%3B-\	.	.	.	.	.	.
80%3d-\	.	.	.	.	.	.
80%3E-\	.	.	20%3ryy	.	.	.
.	.	.	.	8E-</J	.	.
80%3B-\	.	.	.	.	.	.
80%3.d-\JJ	.	.	.	.	.	.
160%3r	.	.	.	.	.	.
=36	=36	=36	=36	=36	=36	=36
!	!	!	!	!	!	!LO:DY:a
12.ryy	.	.	4.ee-/)	24ee-\LL	.	sfz
.	.	.	.	24a-\	.	.
.	.	.	.	24e-\	.	.
24c-\LL	.	.	.	24c-</	.	.
12ryy	.	.	.	24e-\	.	.
.	.	.	.	24a-\	.	.
24c-\JJ	.	.	.	24c-</	.	.
12ryy	.	.	.	24e-\	.	.
.	.	.	.	24a-\JJ	.	.
*	*	*	*	*	*above	*
12.ryy	.	.	4ee-^>/	24ee-\LL	1	.
.	.	.	.	24a-\	3	.
.	.	.	.	24e-\	2	.
12c-\	.	.	.	24c-</	5	.
.	.	.	.	24e-\	4	.
6ryy	.	.	.	24a-\	2	.
.	.	.	8cc-^>/	24cc-\	1	.
.	.	.	.	24e-\	2	.
.	.	.	.	24c-</JJ	4	.
12.ryy	.	.	4a-^>/	24a-\LL	1	.
.	.	.	.	24c-</	.	.
.	.	.	.	24A-</	.	.
12E-\	.	.	.	24E-</	.	.
.	.	.	.	24A-</	.	.
6ryy	.	.	.	24c-</	.	.
.	.	.	8f^>/	24f\	.	.
.	.	.	.	24c-</	.	.
.	.	.	.	24A-</JJ	.	.
!!LO:LB:g=original	!	!	!	!	!	!
=37	=37	=37	=37	=37	=37	=37
24e->\LL	.	.	4.e-^>/	12.ryy	.	.
24B-\	.	.	.	.	.	.
24G-\	.	.	.	.	.	.
24BB-\	.	.	.	12BB-</L	.	.
24G-\	.	.	.	.	.	.
24B-\	.	.	.	24ryy	.	.
24BB-\	.	.	.	12BB-</J	.	.
24A-\	.	.	.	.	.	.
24c-\JJ	.	.	.	24ryy	.	.
!	!	!	!	!	!	!LO:DY:a
24g->\LL	.	.	4.g-^>/	12.ryy	.	f
24B-\	.	.	.	.	.	.
24G-\	.	.	.	.	.	.
24BB-\	.	.	.	12BB-</L	.	.
24G-\	.	.	.	.	.	.
24B-\	.	.	.	24ryy	.	.
24BB-\	.	.	.	12BB-</J	.	.
24G-\	.	.	.	.	.	.
24B-\JJ	.	.	.	24ryy	.	.
24f>\LL	.	.	4e-^>/	3ryy	.	.
24B-\	.	.	.	.	.	.
24A-\	.	.	.	.	.	.
24BB-\	.	.	.	.	.	.
24A-\	.	.	.	.	.	.
24B-\	.	.	.	.	.	.
24d->\	.	.	8d-^>/	.	.	.
24B-\	.	.	.	.	.	.
24A-\JJ	.	.	.	24ryy	.	.
=38	=38	=38	=38	=38	=38	=38
24e->\LL	.	.	6.e-/	8ryy	.	.
24B-\	.	.	.	.	.	.
24G-\	.	.	.	.	.	.
*	*above	*	*	*	*	*
24BB-\	5	.	.	8BB-</L	.	.
24G-\	3	.	.	.	.	.
24B-\	2	.	.	.	.	.
24BB-\	.	.	12.ryy	8BB-</J	.	.
24G-\	.	.	.	.	.	.
24B-\JJ	.	.	.	.	.	.
!	!	!	!LO:TX:a:i:t=con forza	!	!	!
24b->\LL	.	.	12b-^>/L	4.ryy	.	.
24B-\	.	.	.	.	.	.
24G-\	.	.	24ryy	.	.	.
24g->\	.	.	12g-^>/	.	.	.
24B-\	.	.	.	.	.	.
24G-\	.	.	24ryy	.	.	.
24e->\	.	.	12e-^>/J	.	.	.
24B-\	.	.	.	.	.	.
24G-\JJ	.	.	24ryy	.	.	.
!	!	!	!	!	!	!LO:DY:a
24f>\LL	.	.	6f^>/	4.ryy	.	sf
24B-\	.	.	.	.	.	.
24A-\	.	.	.	.	.	.
24BB-\	.	.	.	.	.	.
24A-\	.	.	12ryy	.	.	.
24B-\	.	.	.	.	.	.
24dn>\	.	.	12dn^>/	.	.	.
24B-\	.	.	.	.	.	.
24A-\JJ	.	.	24ryy	.	.	.
!!LO:LB:g=original	!	!	!	!	!	!
=39	=39	=39	=39	=39	=39	=39
24e->\LL	.	.	6.e-/	12.ryy	.	.
24B-/	.	.	.	.	.	.
24G-/	.	.	.	.	.	.
24E-/	.	.	.	12E-<\L	.	.
24G-/	.	.	.	.	.	.
24B-/	.	.	.	24ryy	.	.
24E-/	.	.	12.ryy	12E-<\J	.	.
24G-/	.	.	.	.	.	.
24B-/JJ	.	.	.	24ryy	.	.
!	!	!	!LO:TX:a:i:t=calando	!	!	!
24e->\LL	.	.	6.e-/	12.ryy	.	.
24B-/	.	.	.	.	.	.
24G-/	.	.	.	.	.	.
24E-/	.	.	.	12E-<\L	.	.
24G-/	.	.	.	.	.	.
24B-/	.	.	.	12ryy	.	.
24E-/	.	.	12.ryy	.	.	.
24G-/	.	.	.	12E-<\J	.	.
24B-/JJ	.	.	.	.	.	.
!	!	!	!	!	!	!LO:DY:b
4.ryy	.	.	(64%3e-\LL	4.ryy	.	.
.	.	.	64%3B-</	.	.	.
.	.	.	64%3G-</	.	.	.
*	*	*	*	*	*below	*
.	.	.	64%3E-</JJ	.	5	.
.	.	.	64%3E-<\LL	.	1	.
.	.	.	64%3EE-<'>\JJ)	.	.	.
!	!	!	!LO:N:vis=8	!	!	!
.	.	.	32%3rC<	.	.	.
=40	=40	=40	=40	=40	=40	=40
!	!	!	!	!	!	!LO:DY:a
24f-X>\LL	.	.	6.f-X/	12.ryy	.	pp
24c-\	.	.	.	.	.	.
24A-\JJ	.	.	.	.	.	.
24Dn/LL	.	.	.	12Dn<\L	.	.
24A-/	.	.	.	.	.	.
24c-/	.	.	.	24ryy	.	.
24D/	.	.	12.ryy	12D<\J	.	.
24A-/	.	.	.	.	.	.
24c-/JJ	.	.	.	24ryy	.	.
!	!	!	!LO:N:vis=4.	!	!	!
24fn>\LL	.	.	24fn/	12.ryy	.	.
24c-/	.	.	3ryy	.	.	.
24A-/	.	.	.	.	.	.
24D/	.	.	.	12D<\L	.	.
24A-/	.	.	.	.	.	.
24c-/	.	.	.	24ryy	.	.
24D/	.	.	.	12D<\J	.	.
24A-/	.	.	.	.	.	.
24c-/JJ	.	.	.	24ryy	.	.
4.ryy	.	.	(64%3f\LL	4.ryy	.	.
.	.	.	64%3c-</	.	.	.
.	.	.	64%3A-</	.	.	.
.	.	.	64%3D-y</JJ	.	.	.
.	.	.	64%3D-<\LL	.	.	.
.	.	.	64%3DD-<\JJ)	.	.	.
!	!	!	!LO:N:vis=8	!	!	!
.	.	.	32%3rC<	.	.	.
*	*	*	*v	*v	*	*
=41	=41	=41	=41	=41	=41
!	!	!	!	!	!LO:DY:a
12.ryy	.	.	24f\LL	.	ppp
.	.	.	24c-</	.	.
.	.	.	24A-</	.	.
12D-X\L	.	.	24D-X</	.	.
.	.	.	24A-</	.	.
24ryy	.	.	24c-</	.	.
12D-\J	.	.	24D-</	.	.
.	.	.	24A-</	.	.
24ryy	.	.	24c-</JJ	.	.
12.ryy	.	.	24f\LL	.	.
.	.	.	24c-</	.	.
.	.	.	24A-</	.	.
12D-\L	.	.	24D-</	.	.
.	.	.	24A-</	.	.
24ryy	.	.	24c-</	.	.
12D-\J	.	.	24D-</	.	.
.	.	.	24A-</	.	.
24ryy	.	.	24c-</JJ	.	.
!	!	!	!LO:TX:a:i:t=ritard	!	!
16%3ryy	.	.	64%3f\LL	.	.
.	.	.	64%3c-</	.	.
.	.	.	64%3A-</	.	.
.	.	.	64%3D-</JJ	.	.
64%3D-\LL	.	.	16%3ryy	.	.
64%3DD-'>\JJ	.	.	.	.	.
32%3D-'>\	.	.	.	.	.
!!LO:LB:g=original	!	!	!	!	!
=42	=42	=42	=42	=42	=42
!	!	!	!LO:TX:b:i:t=sotto voce	!	!
1ryy	.	.	2.dd-;\	.	.
.	.	.	4r	.	.
*	*	*	*Xped	*	*
*kcancel	*	*	*kcancel	*	*
=43||	=43||	=43||	=43||	=43||	=43||
*k[f#c#g#d#a#e#]	*	*	*k[f#c#g#d#a#e#]	*	*
*	*	*	*^	*	*
*	*	*	*	*	*	*^
!	!	!	!	!	!	!	!LO:DY:b=2
!LO:N:vis=8	!	!	!LO:TX:a:t=tempo 1|o	!	!	!	!
6FF#\	.	.	24FF#</LL	12.ryy	.	.	sf
!	!	!	!	!	!	!LO:DY:b	!
.	.	.	24F#</	.	.	f	.
.	.	.	24A#</	.	.	.	.
.	.	.	24c#\	12c#^>/L	.	.	.
6ryy	.	.	24A#</	.	.	.	.
.	.	.	24F#</	24ryy	.	.	.
.	.	.	24c#\	12c#^>/J	.	.	.
.	.	.	24A#</	.	.	.	.
24ryy	.	.	24F#</JJ	24ryy	.	.	.
!LO:N:vis=8	!	!	!	!	!	!	!
6C#\	.	.	24C#</LL	12.ryy	.	.	.
.	.	.	24F#</	.	.	.	.
.	.	.	24A#</	.	.	.	.
.	.	.	24c#\	12c#^>/L	.	.	.
6ryy	.	.	24A#</	.	.	.	.
.	.	.	24F#</	24ryy	.	.	.
.	.	.	24c#\	12c#^>/J	.	.	.
.	.	.	24A#</	.	.	.	.
24ryy	.	.	24F#</JJ	24ryy	.	.	.
!LO:N:vis=8	!	!	!	!	!	!	!LO:DY:b=2
3CC#\	.	.	24CC#</LL	12.ryy	.	.	sf
.	.	.	24G#</	.	.	.	.
.	.	.	24B</	.	.	.	.
.	.	.	24d#\	12d#^>/L	.	.	.
.	.	.	24B</	.	.	.	.
.	.	.	24G#</	24ryy	.	.	.
.	.	.	24e#\	12e#^>/J	.	.	.
.	.	.	24B</	.	.	.	.
24ryy	.	.	24G#</JJ	24ryy	.	.	.
*	*	*	*	*	*	*v	*v
=44	=44	=44	=44	=44	=44	=44
12F#\	.	[	24F#</LL	12.ryy	.	.
.	.	.	24A#</	.	.	.
6.ryy	.	.	24c#</	.	.	.
.	.	.	24f#\	12f#^>/L	.	.
.	.	.	24c#</	.	.	.
.	.	.	24A#</	24ryy	.	.
.	.	.	24f#\	12f#^>/J	.	.
.	.	.	24c#</	.	.	.
24ryy	.	.	24A#</JJ	24ryy	.	.
!LO:N:vis=8	!	!	!	!	!	!LO:DY:b=2
32%3FF#\	.	.	24FF#</LL	8ryy	.	ff
.	.	.	24A#</	.	.	.
.	.	.	24c#</	.	.	.
16%3.ryy	.	.	.	.	.	.
!	!	!	!	!	!	!LO:DY:a
.	.	.	24f#\	8f#/L	.	p
.	.	.	24c#</	.	.	.
.	.	.	24A#</	.	.	.
.	.	.	24f#\	8f#/J	.	.
.	.	.	24c#</	.	.	.
.	.	.	24A#</JJ	.	.	.
!LO:N:vis=8	!	!	!	!	!	!
12F#\	.	.	24F#</LL	12.ryy	.	.
.	.	.	24A#</	.	.	.
6.ryy	.	.	24c#</	.	.	.
.	.	.	24e#\	(>12e#^>/L	.	.
.	.	.	24c#</	.	.	.
.	.	.	24A#</	24ryy	.	.
.	.	.	24f#\	12f#^>/J)	.	.
.	.	.	24c#</	.	.	.
24ryy	.	.	24A#</JJ	24ryy	.	.
!!LO:PB:g=original	!	!	!	!	!	!
=45	=45	=45	=45	=45	=45	=45
!	!	!	!	!	!	!LO:DY:b
12C#\	.	.	24C#</LL	12.ryy	.	.
.	.	.	24G#</	.	.	.
6.ryy	.	.	24B#X</	.	.	.
.	.	.	24a#\	12a#^>/L	.	.
.	.	.	24B#</	.	.	.
.	.	.	24G#</	24ryy	.	.
.	.	.	24a#\	12a#^>/J	.	.
.	.	.	24B#</	.	.	.
24ryy	.	.	24G#</JJ	24ryy	.	.
12C#\	.	.	24C#</LL	12.ryy	.	.
.	.	.	24G#</	.	.	.
6.ryy	.	.	24B#</	.	.	.
.	.	.	24g#\	12g#^>/L	.	.
.	.	.	24B#</	.	.	.
.	.	.	24G#</	24ryy	.	.
.	.	.	24g#\	12g#^>/J	.	.
.	.	.	24B#</	.	.	.
24ryy	.	.	24G#</JJ	24ryy	.	.
12CC#\	.	.	24CC#</LL	12.ryy	.	.
.	.	.	24G#</	.	.	.
6.ryy	.	.	24B#</	.	.	.
.	.	.	24d#\	12d#^>/L	.	.
.	.	.	24B#</	.	.	.
.	.	.	24G#</	24ryy	.	.
.	.	.	24e#\	12e#^>/J	.	.
.	.	.	24B#</	.	.	.
24ryy	.	.	24G#</JJ	24ryy	.	.
=46	=46	=46	=46	=46	=46	=46
12F#\	.	.	24F#</LL	12.ryy	.	.
.	.	.	24A#</	.	.	.
6.ryy	.	.	24c#</	.	.	.
.	.	.	24g#\	12g#^>/L	.	.
.	.	.	24c#</	.	.	.
.	.	.	24A#</	24ryy	.	.
.	.	.	24g#\	12g#^>/J	.	.
.	.	.	24c#</	.	.	.
24ryy	.	.	24A#</JJ	24ryy	.	.
12F#\	.	.	24F#</LL	12.ryy	.	.
.	.	.	24A#</	.	.	.
6.ryy	.	.	24c#</	.	.	.
.	.	.	24f#\	12f#^>/L	.	.
.	.	.	24c#</	.	.	.
.	.	.	24A#</	24ryy	.	.
.	.	.	24f#\	12f#^>/J	.	.
.	.	.	24c#</	.	.	.
24ryy	.	.	24A#</JJ	24ryy	.	.
!	!	!	!	!	!	!LO:DY:b=2
12CC#\	.	.	24CC#</LL	12.ryy	.	sf
.	.	.	24G#</	.	.	.
6.ryy	.	.	24B</	.	.	.
.	.	.	24e#\	12e#^>/L	.	.
.	.	.	24B</	.	.	.
.	.	.	24G#</	24ryy	.	.
.	.	.	24d#\	12d#/J	.	.
.	.	.	24B</	.	.	.
24ryy	.	.	24G#</JJ	24ryy	.	.
!!LO:LB:g=original	!	!	!	!	!	!
=47	=47	=47	=47	=47	=47	=47
!	!	!	!	!	!	!LO:DY:b
12FF#\	.	.	24FF#</LL	12.ryy	.	f
.	.	.	24F#</	.	.	.
!	!	!	!	!	!	!LO:DY:b
6.ryy	.	.	24A#</	.	.	p
.	.	.	24c#\	(>12c#/L	.	.
.	.	.	24A#</	.	.	.
.	.	.	24F#</	24ryy	.	.
.	.	.	24c#\	12c#/J)	.	.
.	.	.	24A#</	.	.	.
24ryy	.	.	24F#</JJ	24ryy	.	.
12C#\	.	.	24C#</LL	12.ryy	.	.
.	.	.	24G#</	.	.	.
6.ryy	.	.	24A#</	.	.	.
.	.	.	24c#\	12c#^>/L	.	.
.	.	.	24A#</	.	.	.
.	.	.	24F#</	24ryy	.	.
.	.	.	24c#\	12c#/J	.	.
.	.	.	24A#</	.	.	.
24ryy	.	.	24F#</JJ	24ryy	.	.
!	!	!	!	!	!	!LO:DY:b=2
12CC#\	.	.	24CC#</LL	12.ryy	.	sf
.	.	.	24G#</	.	.	.
6.ryy	.	.	24B#y</	.	.	.
.	.	.	24d#\	12d#^>/L	.	.
.	.	.	24B#</	.	.	.
.	.	.	24G#</	24ryy	.	.
.	.	.	24e#\	12e#^>/J	.	.
.	.	.	24B#</	.	.	.
24ryy	.	.	24G#</JJ	24ryy	.	.
=48	=48	=48	=48	=48	=48	=48
12F#\	.	.	24F#</LL	12.ryy	.	.
.	.	.	24A#</	.	.	.
6.ryy	.	.	24c#</	.	.	.
.	.	.	24f#\	12f#/L	.	.
.	.	.	24c#</	.	.	.
.	.	.	24A#</	24ryy	.	.
.	.	.	24f#\	12f#/J	.	.
.	.	.	24A#</	.	.	.
24ryy	.	.	24A#</JJ	24ryy	.	.
12FF#\	.	.	24FF#</LL	12.ryy	.	.
.	.	.	24A#</	.	.	.
6.ryy	.	.	24c#</	.	.	.
.	.	.	24f#\	12f#/L	.	.
.	.	.	24c#</	.	.	.
.	.	.	24A#</	24ryy	.	.
.	.	.	24f#\	12f#/J	.	.
.	.	.	24c#</	.	.	.
24ryy	.	.	24A#</JJ	24ryy	.	.
12F#\	.	.	24F#</LL	12.ryy	.	.
.	.	.	24A#</	.	.	.
!	!	!	!	!	!	!LO:DY:b
6.ryy	.	.	24c#</	.	.	sf
.	.	.	24e#\	>12e#^>/L	.	.
.	.	.	24c#</	.	.	.
.	.	.	24A#</	24ryy	.	.
.	.	.	24f#\	12f#^>/J	.	.
.	.	.	24c#</	.	.	.
24ryy	.	.	24A#</JJ	24ryy	.	.
!!LO:LB:g=original	!	!	!	!	!	!
=49	=49	=49	=49	=49	=49	=49
12G#\	.	.	24G#</LL	12.ryy	.	.
.	.	.	24B</	.	.	.
6.ryy	.	.	24d#</	.	.	.
.	.	.	24a#\	((>12a#^>/L	.	.
.	.	.	24d#</	.	.	.
.	.	.	24B</	24ryy	.	.
.	.	.	24g#\	12g#^>/J))	.	.
.	.	.	24d#</	.	.	.
24ryy	.	.	24B</JJ	24ryy	.	.
12G#\	.	.	24G#</LL	12.ryy	.	.
.	.	.	24A#</	.	.	.
6.ryy	.	.	24d#</	.	.	.
.	.	.	24a#\	(>12a#^>/L	.	.
.	.	.	24d#</	.	.	.
.	.	.	24B</	24ryy	.	.
.	.	.	24g#\	12g#/J)	.	.
.	.	.	24B</	.	.	.
24ryy	.	.	24F#</JJ	24ryy	.	.
12C#\	.	.	24C#</LL	12.ryy	.	.
.	.	.	24G#</	.	.	.
6.ryy	.	.	24B</	.	.	.
.	.	.	24f#\	(>12f#^>/L	.	.
.	.	.	24B</	.	.	.
.	.	.	24F#</	24ryy	.	.
.	.	.	24e#\	12e#/J)	.	.
.	.	.	24B</	.	.	.
24ryy	.	.	24G#</JJ	24ryy	.	.
=50	=50	=50	=50	=50	=50	=50
!	!	!	!	!	!	!LO:DY:b
12F#\	.	.	24F#</LL	12.ryy	.	f
.	.	.	24A#</	.	.	.
6.ryy	.	.	24c#</	.	.	.
.	.	.	24f#\	12f#^>/L	.	.
.	.	.	24c#</	.	.	.
.	.	.	24A#</	24ryy	.	.
.	.	.	24f#\	12f#^>/J	.	.
!	!	!	!	!	!	!LO:DY:b=2
.	.	.	24c#</	.	.	sf
24ryy	.	.	24A#</JJ	24ryy	.	.
12FF#\	.	.	24FF#</LL	12.ryy	.	.
.	.	.	24A#</	.	.	.
6.ryy	.	.	24c#</	.	.	.
.	.	.	24f#\	12f#^>/L	.	.
.	.	.	24c#</	.	.	.
.	.	.	24A#</	24ryy	.	.
.	.	.	24f#\	12f#/J	.	.
.	.	.	24c#</	.	.	.
24ryy	.	.	24A#</JJ	24ryy	.	.
*ped	*	*	*	*	*	*
12D#\	.	.	24D#</LL	12.ryy	.	.
.	.	.	24A#</	.	.	.
!	!	!	!	!	!	!LO:DY:a
6.ryy	.	.	24c#</	.	.	sf
.	.	.	24f##\	12f##^>/L	.	.
.	.	.	24c#</	.	.	.
.	.	.	24A#</	24ryy	.	.
.	.	.	24f##\	12f##/J	.	.
.	.	.	24c#</	.	.	.
24ryy	.	.	24A#</JJ	24ryy	.	.
*Xped	*	*	*	*	*	*
!!LO:LB:g=original	!	!	!	!	!	!
=51	=51	=51	=51	=51	=51	=51
12G#\	.	.	24G#</LL	12.ryy	.	.
.	.	.	24B</	.	.	.
6.ryy	.	.	24d#</	.	.	.
.	.	.	24a#\	12a#^>/L	.	.
.	.	.	24d#</	.	.	.
.	.	.	24B</	24ryy	.	.
.	.	.	24g#\	12g#^>/J	.	.
.	.	.	24d#</	.	.	.
24ryy	.	.	24B</JJ	24ryy	.	.
12G#\	.	.	24G#</LL	12.ryy	.	.
.	.	.	24B</	.	.	.
6.ryy	.	.	24d#</	.	.	.
!	!	!	!	!LO:N:vis=16	!	!
!	!	!	!	!	!	!LO:DY:a
.	.	.	24ee#\	12ee#/	.	sf
.	.	.	24d#</	.	.	.
.	.	.	24B</	24ryy	.	.
!	!	!	!	!LO:N:vis=8	!	!
.	.	.	24cc#\	12cc#/	.	.
.	.	.	24d#</	.	.	.
24ryy	.	.	24B</JJ	24ryy	.	.
12C#\	.	.	24C#</LL	12.ryy	.	.
.	.	.	24E#</	.	.	.
6.ryy	.	.	24B</	.	.	.
.	.	.	24f#\	(>12f#^>/L	.	.
.	.	.	24B</	.	.	.
.	.	.	24G#</	24ryy	.	.
.	.	.	24e#\	12e#^>/J)	.	.
.	.	.	24B</	.	.	.
24ryy	.	.	24G#</JJ	24ryy	.	.
=52	=52	=52	=52	=52	=52	=52
*ped	*	*	*	*	*	*
!	!	!	!	!	!	!LO:DY:b
12F#\	.	.	24F#</LL	12.ryy	.	f
.	.	.	24A#</	.	.	.
6.ryy	.	.	24c#</	.	.	.
.	.	.	24f#\	12f#^>/L	.	.
.	.	.	24c#</	.	.	.
.	.	.	24A#</	24ryy	.	.
.	.	.	24f#\	12f#^>/J	.	.
.	.	.	24c#</	.	.	.
24ryy	.	.	24A#</JJ	24ryy	.	.
12FF#\	.	.	24FF#</LL	12.ryy	.	.
.	.	.	24A#</	.	.	.
6.ryy	.	.	24c#</	.	.	.
.	.	.	24f#\	12f#^>/L	.	.
.	.	.	24c#</	.	.	.
.	.	.	24A#</	24ryy	.	.
.	.	.	24a#\	12a#^>/J	.	.
.	.	.	24c#</	.	.	.
24ryy	.	.	24A#</JJ	24ryy	.	.
12D#\	.	.	24D#</LL	12.ryy	.	.
.	.	.	24A#</	.	.	.
6.ryy	.	.	24c#</	.	.	.
!	!	!	!	!LO:N:vis=16	!	!
.	.	.	24cc#\	12cc#^>/	.	.
.	.	.	24c#</	.	.	.
.	.	.	24A#</	24rcc	.	.
!	!	!	!	!LO:N:vis=8	!	!
.	.	.	24a#\	24a#/	.	.
.	.	.	24%1c#</	24%1ryy	.	.
24%1ryy	.	.	24%1A#</	24%1rccyy	.	.
24%1ryy	.	.	24%1F#</JJ	24%1ryy	.	.
!!LO:LB:g=original	!	!	!	!	!	!
=53	=53	=53	=53	=53	=53	=53
.	.	.	8qqF#<	.	.	.
12FF#\	.	.	24FF#</LL	12.ryy	.	.
.	.	.	24A#</	.	.	.
6.ryy	.	.	24c#</	.	.	.
.	.	.	24f#\	12f#/L	.	.
.	.	.	24c#</	.	.	.
.	.	.	24A#</	24ryy	.	.
.	.	.	24f#\	12f#/J	.	.
.	.	.	24c#</	.	.	.
24ryy	.	.	24A#</JJ	24ryy	.	.
12FF#\	.	.	24FF#</LL	12.ryy	.	.
.	.	.	24A#</	.	.	.
6.ryy	.	.	24c#</	.	.	.
.	.	.	24f#\	12f#^>/L	.	.
.	.	.	24c#</	.	.	.
.	.	.	24A#</	24ryy	.	.
.	.	.	24a#\	12a#^>/J	.	.
.	.	.	24c#</	.	.	.
24ryy	.	.	24A#</JJ	24ryy	.	.
12D#\	.	.	24D#</LL	12.ryy	.	.
.	.	.	24A#</	.	.	.
6.ryy	.	.	24c#</	.	.	.
!	!	!	!	!LO:N:vis=16	!	!
.	.	.	24cc#\	12cc#^>/	.	.
.	.	.	24c#</	.	.	.
.	.	.	24A#</	24rcc	.	.
!	!	!	!	!LO:N:vis=8	!	!
.	.	.	24a#\	24a#/	.	.
.	.	.	24c#</	24%1ryy	.	.
24ryy	.	.	24A#</JJ	24%1rccyy	.	.
=54	=54	=54	=54	=54	=54	=54
*ped	*	*	*	*	*	*
12F#\	.	.	24F#</LL	12.ryy	.	.
.	.	.	24A#</	.	.	.
6.ryy	.	.	24c#</	.	.	.
.	.	.	24f#\	(>12f#/L	.	.
.	.	.	24c#</	.	.	.
.	.	.	24A#</	24ryy	.	.
.	.	.	24f#\	12f#/J	.	.
.	.	.	24c#</	.	.	.
24ryy	.	.	24A#</JJ	24ryy	.	.
12F#\	.	.	24F#</LL	12.ryy	.	.
.	.	.	24A#</	.	.	.
6.ryy	.	.	24c#</	.	.	.
.	.	.	24g##X\	12g##/L	.	.
.	.	.	24c#</	.	.	.
.	.	.	24A#</	24ryy	.	.
.	.	.	24g##\	12g##/J	.	.
.	.	.	24c#</	.	.	.
24ryy	.	.	24A#</JJ	24ryy	.	.
12F#\	.	.	24F#</LL	12.ryy	.	.
.	.	.	24A#</	.	.	.
6.ryy	.	.	24c#</	.	.	.
.	.	.	24e#\	12e#^>/L	.	.
.	.	.	24c#</	.	.	.
.	.	.	24A#</	24ryy	.	.
.	.	.	24f#\	12f#/J)	.	.
.	.	.	24c#</	.	.	.
24ryy	.	.	24A#</JJ	24ryy	.	.
*	*	*	*v	*v	*	*
!!LO:LB:g=original	!	!	!	!	!
=55	=55	=55	=55	=55	=55
8C#^<\	.	.	(24C#</LL	.	.
.	.	.	24F#</	.	.
.	.	.	24A#</JJ	.	.
24B#X\LL	.	.	8B#X</L	.	.
24A#\	.	.	.	.	.
24F#\	.	.	.	.	.
24c#\	.	.	8c#</J	.	.
24A#\	.	.	.	.	.
24F#\JJ	.	.	.	.	.
!	!	!	!LO:TX:t=perdendosi sin al fine_:dur=45s:ext=ud:problem:text with extention lines	!	!
8AA#^\	.	.	24AA#</LL	.	.
.	.	.	24C#</	.	.
.	.	.	24F#</JJ	.	.
24G##X\LL	.	.	8G##X<^>/L	.	.
24F#\	.	.	.	.	.
24C#\	.	.	.	.	.
24A#\	.	.	8A#</J	.	.
24F#\	.	.	.	.	.
24C#\JJ	.	.	.	.	.
8FF#^\	.	.	24FF#</LL	.	.
.	.	.	24AA#</	.	.
.	.	.	24C#</JJ	.	.
24E#\LL	.	.	8E#<^>/L	.	.
24C#\	.	.	.	.	.
24AA#\	.	.	.	.	.
24F#\	.	.	8F#</J	.	.
24C#\	.	.	.	.	.
24AA#\JJ	.	.	.	.	.
=56	=56	=56	=56	=56	=56
8CC#^\	.	.	24CC#</LL	.	.
.	.	.	24FF#</	.	.
.	.	.	24AA#</JJ	.	.
24BB#X\LL	.	.	8BB#X</L	.	.
24AA#\	.	.	.	.	.
24FF#\	.	.	.	.	.
24C#\	.	.	8C#</J	.	.
24AA#\	.	.	.	.	.
24FF#\JJ	.	.	.	.	.
8AAA#^\	.	.	24AAA#</LL	.	.
.	.	.	24CC#</	.	.
.	.	.	24FF#</JJ	.	.
24GG##X\LL	.	.	8GG##X<^>/L	.	.
24FF#\	.	.	.	.	.
24CC#\	.	.	.	.	.
24AA#\	.	.	8AA#</J	.	.
24FF#\	.	.	.	.	.
24CC#\JJ	.	.	.	.	.
8FFF#\	.	.	24FFF#</LL	.	.
.	.	.	24CC#</	.	.
.	.	.	24FF#</JJ	.	.
24AA#\LL	.	.	8AA#<^>/L	.	.
24FF#\	.	.	.	.	.
24CC#\	.	.	.	.	.
24C#\	.	.	8C#<^>/J	.	.
24FF#\	.	.	.	.	.
24CC#\JJ	.	.	.	.	.
!!LO:LB:g=original	!	!	!	!	!
=57	=57	=57	=57	=57	=57
8FFF#\	.	.	24FFF#</LL	.	.
!	!	!	!	!	!LO:DY:b
.	.	.	24CC#</	.	pp
.	.	.	24FF#</JJ	.	.
24AA#\LL	.	.	8AA#<^>/L	.	.
24FF#\	.	.	.	.	.
24CC#\	.	.	.	.	.
24C#\	.	.	8C#<^>/J	.	.
24FF#\	.	.	.	.	.
24CC#\JJ	.	.	.	.	.
8FFF#\	.	.	24FFF#</LL	.	.
.	.	.	24CC#</	.	.
.	.	.	24FF#</JJ	.	.
24AA#\LL	.	.	8AA#<^>/L	.	.
24FF#\	.	.	.	.	.
24CC#\	.	.	.	.	.
24C#\	.	.	8C#<^>/J	.	.
24FF#\	.	.	.	.	.
24CC#\JJ	.	.	.	.	.
8FFF#\	.	.	24FFF#</LL	.	.
.	.	.	24CC#</	.	.
.	.	.	24FF#</JJ	.	.
24AA#\LL	.	.	8AA#<^>/L	.	.
24FF#\	.	.	.	.	.
24CC#\	.	.	.	.	.
24C#\	.	.	8C#<^>/J	.	.
24FF#\	.	.	.	.	.
24CC#\JJ	.	.	.	.	.
=58	=58	=58	=58	=58	=58
8%9ryy	.	.	24FFF#</LL	.	.
.	.	.	24CC#</	.	.
.	.	.	24FF#</JJ	.	.
.	.	.	32AA#</LL	.	.
.	.	.	32FF#</	.	.
.	.	.	32CC#</	.	.
.	.	.	32C#</JJ	.	.
.	.	.	32AA#</LL	.	.
.	.	.	32FF#</	.	.
.	.	.	32CC#</	.	.
.	.	.	32FF#</JJ	.	.
.	.	.	32AA#</LL	.	.
.	.	.	32C#</	.	.
.	.	.	32FF#</	.	.
.	.	.	32AA#</JJ	.	.
!	!	!	!LO:N:vis=8	!	!
.	.	.	16C#<\L	.	.
!	!	!	!LO:N:vis=8	!	!
.	.	.	16F#<\J	.	.
.	.	.	4A#<\	.	.
.	.	.	8c#<'>\)	.	.
.	.	.	8r<	.	.
=59	=59	=59	=59	=59	=59
8%9ryy	.	.	2.f#;/	.	ppp
.	.	.	4.r	.	.
==	==	==	==	==	==
*-	*-	*-	*-	*-	*-
!!!system-decoration: {(s1,s2)}
!!!RDF**kern: > = above
!!!RDF**kern: < = below
!!!RDF**kern: N = linked
!!!ENC: Filip Voros
!!!END: 2022-07-20
!!!ENC: Natalia Wrzos
!!!END: 2022-11-11
!!!YEC: Copyright 2022 Narodowy Instytut Fryderyka Chopina (https://polishscores.org)
!!!YEM: License CC-BY-4.0 (https://creativecommons.org/licenses/by/4.0)
